X:132
T:Click Go The Shears
C:Traditional
S:Colin Hume's website,  colinhume.com  - chords can also be printed below the stave.
Q:1/4=140
M:4/4
L:1/8
K:D
P:A
"D"F2 F>E D2F>A | "G"d2d>c B4 | "D"A2A>B A2F>D | "A7"E2E>F E4 |\
"D"F2 F>E D2F>A | "G"d2d>c B4 | "A7"e>dc>B A>GF>E | "D"D2d>d d4 |
P:B
"A7"e2e>e c2e2 | "D"d2f2 d4 | "G"B2B>c d>cd>B | "D"A>BA>F "A7"E4 |\
"D"F2 F>E D2F>A | "G"d2d>c "E7/G#"B4 | "A7"e>dc>B A>GF>E | "D"D2d>d d4 ||

